!!!COM: Anonymous
!!!OTL: Joyeulx espoir et bon vouloir
!!!AGN: Song; Chanson; Rondeau
!!!SCT: Ano3155
!!!SCA: Ano3155
!!!SMS: Dijon Chansonnier
!!!folio: 114v-115r
!!!voices: 3
**kern	**kern	**kern
*staff3	*staff2	*staff1
*Ivox	*Ivox	*Ivox
*I"Contra	*I"Tenor	*I"Discantus
*I'C	*I'T	*I'D
*clefGv2	*clefGv2	*clefG2
*k[]	*k[]	*k[]
*M2/1	*M2/1	*M2/1
*met(C|)	*met(C|)	*met(C|)
=1-	=1-	=1-
[0G	0g	0r
=2	=2	=2
0G_	1g	0dd
.	1g	.
=3	=3	=3
0G]	0d	1dd
.	.	1dd
=4	=4	=4
0F	1d	0a
.	1d	.
=5	=5	=5
0D	1.f	1a
.	.	1a
.	2g	.
=6	=6	=6
1r	0a	1.cc
1F	.	.
.	.	2dd
=7	=7	=7
1E	1g	1ee
[1D	1a	[1ff
=8	=8	=8
1D]	1d	2ff]
.	.	2dd
1D	1f	[1dd
=9	=9	=9
0A	0e	1dd]
.	.	1cc#i
=10	=10	=10
1D	[0d	0dd
1G	.	.
=11	=11	=11
1F	0d_	0r
1G	.	.
=12	=12	=12
1D	0d]	0a
1F	.	.
=13	=13	=13
1E	0r	0g
1C	.	.
=14	=14	=14
1D	0a	0f
1F	.	.
=15	=15	=15
0C	0g	0e
=16	=16	=16
0D	0f	1r
.	.	1a
=17	=17	=17
1r	0e	1g
1A	.	[1cc
=18	=18	=18
!LO:TX:Z=24:t=MS&colon; e	!	!
1F	1A	1cc]
1G	1d	[1b
=19	=19	=19
1A	1c	1b]
1F	1A	[1a
=20	=20	=20
0E	0B	1a]
.	.	1g#i
=21	=21	=21
0F	0A	1a
.	.	1cc
=22	=22	=22
0D	0d	2b
.	.	2a
.	.	2g
.	.	2f
=23	=23	=23
1.AN	[0cN	0eN
2G	.	.
=24	=24	=24
1.F	0c]	0r
4E	.	.
4D	.	.
=25	=25	=25
0C	[0g	0ee
=26	=26	=26
0c	0g]	1ee
.	.	1ee
=27	=27	=27
1F	[0a	1.ff
1D	.	.
.	.	4ee
.	.	4dd
=28	=28	=28
1A	1a]	1cc
1d	1f	[1ff
=29	=29	=29
0c	0g	1ff]
.	.	1ee
=30	=30	=30
1d	1f	1dd
!LO:TX:Z=24:t=MS&colon; b	!	!
1c	1g	[1ee
=31	=31	=31
1A	1a	1ee]
1d	1f	[1dd
=32	=32	=32
0A	0e	1dd]
.	.	1cc#i
=33	=33	=33
0D	1d	1dd
.	1f	1a
=34	=34	=34
1G	1g	1b
1F	[1a	[1cc
=35	=35	=35
0A	1a]	1cc]
.	1cc	[1a
=36	=36	=36
0E	0b	1a]
.	.	1g#
=37	=37	=37
1FN	[0a	0a
1D	.	.
=38	=38	=38
1.F	0a]	0r
2G	.	.
=39	=39	=39
1A	0r	0f
1d	.	.
=40	=40	=40
0c	0r	0e
=41	=41	=41
1r	0f	0d
1d	.	.
=42	=42	=42
0A	0e	0c
=43	=43	=43
0D	0d	1d
.	.	1f
=44	=44	=44
0A	0c	0e
=45	=45	=45
0D	1d	0d
.	1f	.
=46	=46	=46
0C	0e	1r
.	.	1g
=47	=47	=47
1D	0d	1f
1F	.	1a
=48	=48	=48
1G	1g	1b
1F	1a	1cc
=49	=49	=49
2A	1f	1a
2B	.	.
[1c	1e	[1g
=50	=50	=50
1c]	0a	2g]
.	.	2f
1F	.	[1f
=51	=51	=51
0C	0g	1f]
.	.	1e
=52	=52	=52
1D	0f	0f
1F	.	.
=53	=53	=53
1G	0d	1r
1D	.	[1ff
=54	=54	=54
1r	0g	2ff]
.	.	2ee
1G	.	2dd
.	.	2cc
=55	=55	=55
1B	1f	1dd
1c	1e	[1cc
=56	=56	=56
0G	0d	1cc]
.	.	1b
=57	=57	=57
1A	1c	1cc
1F	1f	1dd
=58	=58	=58
1C	1g	0ee
1c	[1a	.
=59	=59	=59
1F	2a]	1ff
.	2g	.
1c	1e	[1gg
=60	=60	=60
1A	1f	2gg]
.	.	2ff
1G	[1g	2ee
.	.	2dd
=61	=61	=61
1c	1g]	1ee
1d	1f	2dd
.	.	2a
=62	=62	=62
0A	0e	2b
.	.	2dd
.	.	2cc#i
.	.	4b
.	.	4cc#i
=63	=63	=63
0Dl	0dl	0ddl
==	==	==
*-	*-	*-
!!!RDF**kern: l=long note in original notation
!!!RDF**kern: i=editorial accidental
!!!RDF**kern: N=signum congruentiae
!!!ENC: Chris Gage 1-25-2017
!!!END: 2018/12/10/
!!!EED: Jesse Rodin
!!!EEV: 2018/12/13/
!!!ONB: Translated from MusicXML and edited on 2018/12/13/ by Craig Sapp
!!muse2ps: C^@{COM}\n@{SMS}, @{folio}^v95,95,150c180
